!!!OTL: 173. Jm Gruenen.
!!!COM: Christian Schulz
!!!ODT: 1825 (um)
!!!ARE: Europa, Mitteleuropa, Deutschland
!!!SCT: B0173
!!!TXL: @@DE
!!!YEM: Copyright 1995, estate of Helmut Schaffrath.
**kern	**text
*ICvox	*
*Ivox	*
*M2/4	*
*clefG2	*
*k[f#c#g#]	*
*A:	*
!LO:TX:a:t=Heiter.	!
{8e	Jm
=1	=1
8.cc#	Grün
16b	er-
8a	-wacht
8b	der
=2	=2
8.cc#	fri-
16b	-ſche
8a}	Muth,
{8a	wenn
=3	=3
8.f#	blau
16b	der
8cc#	Him-
8b	-mel
=4	=4
4g#	blickt;
8r}	.
{8e	im
=5	=5
8.dd	Grü-
16cc#	-nen
8b/	da
8a	wird
=6	=6
8g#	al-
8f#	-les
8e}	gut,
{8dd	was
=7	=7
4.cc#	je
8b	das
=8	=8
[2a	Herʒ
=9	=9
8aL]	.
8g#	.
8c#J	.
8b	be-
=10	=10
4a	-drückt.
8r}	.
==	==
!!!AGN: Natur -, Wander - Lied
!!!GTL: Naturfreude, Waldlust, Landleben, Berg- und Wasserfahrt
!!!ONB: ESAC (Essen Associative Code) Database: BOEHME
!!!AMT: simple duple
!!!AIN: vox
!!!EED: Helmut Schaffrath
!!!EEV: 1.0
!!@@COMMENT:"Gedicht von Helmine v. Cheʒy 1816. Ʒuerſt in: "Reue auserleſene Schriften der Enkelin der Karſchin".
!!2. Abth. Heidelberg, 1817. S. 151.
!!Mel. von Mendelsſohn, op. 59 für Chorgeſang."
!!@@END:
!!!Text: Helmine v. Chezy
!!!URL-scan: https://archive.org/details/BoehmeVtLieder1895/page/n171/mode/2up
!!!ENC: Anna Maria Matuszewska
!!!EEV: 2024/21/06
*-	*-
